.local/share/icons/Gruvbox-Plus-Dark/devices/16/network-wireless.svg

<svg width="16" height="16" version="1.1" xmlns="http://www.w3.org/2000/svg">
  <defs>
    <style id="current-color-scheme" type="text/css">.ColorScheme-Text { color:#ebdbb2; } .ColorScheme-Highlight { color:#458588; }</style>
  </defs>
  <path class="ColorScheme-Text" d="m8 8.607c-1.296 0-2.519 0.571-3.355 1.567-0.26 0.309-0.22 0.77 0.089 1.029 0.137 0.115 0.304 0.172 0.47 0.172 0.208 0 0.415-0.089 0.56-0.261 0.558-0.665 1.373-1.046 2.236-1.046s1.678 0.381 2.236 1.046c0.145 0.173 0.352 0.261 0.56 0.261 0.166 0 0.333-0.056 0.47-0.172 0.309-0.259 0.349-0.72 0.089-1.029-0.836-0.996-2.059-1.567-3.355-1.567zm0-3.214c-2.158 0-4.196 0.952-5.592 2.613-0.26 0.308-0.22 0.769 0.09 1.029 0.136 0.114 0.303 0.171 0.469 0.171 0.209 0 0.416-0.089 0.56-0.261 1.117-1.329 2.747-2.091 4.473-2.091 1.725 0 3.356 0.762 4.473 2.091 0.145 0.173 0.352 0.261 0.56 0.261 0.166 0 0.333-0.056 0.469-0.171 0.31-0.26 0.35-0.721 0.09-1.029-1.396-1.661-3.434-2.613-5.592-2.613zm7.829 0.564c-1.954-2.325-4.808-3.659-7.829-3.659s-5.874 1.334-7.829 3.659c-0.259 0.308-0.219 0.769 0.09 1.029 0.137 0.115 0.303 0.171 0.469 0.171 0.208 0 0.415-0.088 0.56-0.26 1.675-1.994 4.121-3.137 6.71-3.137s5.034 1.143 6.71 3.136c0.145 0.172 0.352 0.261 0.56 0.261 0.166 0 0.333-0.056 0.469-0.172 0.309-0.259 0.349-0.72 0.09-1.028zm-9.032 6.541c0 0.664 0.539 1.204 1.203 1.204s1.203-0.54 1.203-1.204c-0.203-1.708-2.368-1.272-2.406 0z" fill="currentColor"/>
</svg>

<svg xmlns="http://www.w3.org/2000/svg" style="isolation:isolate" width="16" height="16" viewBox="0 0 16 16">
 <defs>
  <style id="current-color-scheme" type="text/css">
   .ColorScheme-Text { color:#ebdbb2; } .ColorScheme-Highlight { color:#458588; }
  </style>
  <linearGradient id="arrongin" x1="0%" x2="0%" y1="0%" y2="100%">
   <stop offset="0%" style="stop-color:#d79921; stop-opacity:1"/>
   <stop offset="100%" style="stop-color:#b57614; stop-opacity:1"/>
  </linearGradient>
  <linearGradient id="aurora" x1="0%" x2="0%" y1="0%" y2="100%">
   <stop offset="0%" style="stop-color:#83a598; stop-opacity:1"/>
   <stop offset="100%" style="stop-color:#b16286; stop-opacity:1"/>
  </linearGradient>
  <linearGradient id="fitdance" x1="0%" x2="0%" y1="0%" y2="100%">
   <stop offset="0%" style="stop-color:#8ec07c; stop-opacity:1"/>
   <stop offset="100%" style="stop-color:#458588; stop-opacity:1"/>
  </linearGradient>
  <linearGradient id="oomox" x1="0%" x2="0%" y1="0%" y2="100%">
   <stop offset="0%" style="stop-color:#458588; stop-opacity:1"/>
   <stop offset="100%" style="stop-color:#928374; stop-opacity:1"/>
  </linearGradient>
  <linearGradient id="rainblue" x1="0%" x2="0%" y1="0%" y2="100%">
   <stop offset="0%" style="stop-color:#b8bb26; stop-opacity:1"/>
   <stop offset="100%" style="stop-color:#076678; stop-opacity:1"/>
  </linearGradient>
  <linearGradient id="sunrise" x1="0%" x2="0%" y1="0%" y2="100%">
   <stop offset="0%" style="stop-color: #fe8019; stop-opacity:1"/>
   <stop offset="100%" style="stop-color: #fabd2f; stop-opacity:1"/>
  </linearGradient>
  <linearGradient id="telinkrin" x1="0%" x2="0%" y1="0%" y2="100%">
   <stop offset="0%" style="stop-color: #83a598; stop-opacity:1"/>
   <stop offset="100%" style="stop-color: #83a598; stop-opacity:1"/>
  </linearGradient>
  <linearGradient id="60spsycho" x1="0%" x2="0%" y1="0%" y2="100%">
   <stop offset="0%" style="stop-color: #fb4934; stop-opacity:1"/>
   <stop offset="25%" style="stop-color: #fabd2f; stop-opacity:1"/>
   <stop offset="50%" style="stop-color: #fe8019; stop-opacity:1"/>
   <stop offset="100%" style="stop-color: #689d6a; stop-opacity:1"/>
  </linearGradient>
  <linearGradient id="90ssummer" x1="0%" x2="0%" y1="0%" y2="100%">
   <stop offset="0%" style="stop-color: #b16286; stop-opacity:1"/>
   <stop offset="20%" style="stop-color: #8ec07c; stop-opacity:1"/>
   <stop offset="50%" style="stop-color: #fabd2f; stop-opacity:1"/>
   <stop offset="100%" style="stop-color: #458588; stop-opacity:1"/>
  </linearGradient>
  <linearGradient id="cyberneon" x1="0%" x2="0%" y1="0%" y2="100%">
    <stop offset="0" style="stop-color:#83a598; stop-opacity:1"/>
    <stop offset="1" style="stop-color:#b16286; stop-opacity:1"/>
  </linearGradient>
  <clipPath id="_clipPath_Pq8gi0UFH0yVcqOiKSjNhmu1ToEQ47bH">
   <rect width="16" height="16"/>
  </clipPath>
 </defs>
 <path style="fill:currentColor" class="ColorScheme-Text" fill-rule="evenodd" d="M 8 8.607 C 6.704 8.607 5.481 9.178 4.645 10.174 C 4.385 10.483 4.425 10.944 4.734 11.203 C 4.871 11.318 5.038 11.375 5.204 11.375 C 5.412 11.375 5.619 11.286 5.764 11.114 C 6.322 10.449 7.137 10.068 8 10.068 C 8.863 10.068 9.678 10.449 10.236 11.114 C 10.381 11.287 10.588 11.375 10.796 11.375 C 10.962 11.375 11.129 11.319 11.266 11.203 C 11.575 10.944 11.615 10.483 11.355 10.174 C 10.519 9.178 9.296 8.607 8 8.607 L 8 8.607 L 8 8.607 L 8 8.607 Z M 8 5.393 C 5.842 5.393 3.804 6.345 2.408 8.006 C 2.148 8.314 2.188 8.775 2.498 9.035 C 2.634 9.149 2.801 9.206 2.967 9.206 C 3.176 9.206 3.383 9.117 3.527 8.945 C 4.644 7.616 6.274 6.854 8 6.854 C 9.725 6.854 11.356 7.616 12.473 8.945 C 12.618 9.118 12.825 9.206 13.033 9.206 C 13.199 9.206 13.366 9.15 13.502 9.035 C 13.812 8.775 13.852 8.314 13.592 8.006 C 12.196 6.345 10.158 5.393 8 5.393 L 8 5.393 L 8 5.393 L 8 5.393 Z M 15.829 5.957 C 13.875 3.632 11.021 2.298 8 2.298 C 4.979 2.298 2.126 3.632 0.171 5.957 C -0.088 6.265 -0.048 6.726 0.261 6.986 C 0.398 7.101 0.564 7.157 0.73 7.157 C 0.938 7.157 1.145 7.069 1.29 6.897 C 2.965 4.903 5.411 3.76 8 3.76 C 10.589 3.76 13.034 4.903 14.71 6.896 C 14.855 7.068 15.062 7.157 15.27 7.157 C 15.436 7.157 15.603 7.101 15.739 6.985 C 16.048 6.726 16.088 6.265 15.829 5.957 L 15.829 5.957 L 15.829 5.957 Z M 6.797 12.498 C 6.797 13.162 7.336 13.702 8 13.702 C 8.664 13.702 9.203 13.162 9.203 12.498 C 9 10.79 6.835 11.226 6.797 12.498 L 6.797 12.498 Z"/>
</svg>
